src/assets/upload.svg

<svg xmlns="http://www.w3.org/2000/svg" xmlns:xlink="http://www.w3.org/1999/xlink" x="0" y="0" version="1.1" viewBox="0 0 100 100"><g fill="none" fill-rule="evenodd" stroke="none" stroke-width="1"><g fill="#0097e6"><path d="M71,67 L71,73 C71,73.5783616 70.5895252,74 70.0816327,74 L29.9183673,74 C29.4067745,74 29,73.5825962 29,73 L29,67 C29,65.3431458 27.6568542,64 26,64 C24.3431458,64 23,65.3431458 23,67 L23,73 C23,76.8621606 26.0579337,80 29.9183673,80 L70.0816327,80 C73.9398005,80 77,76.8565728 77,73 L77,67 C77,65.3431458 75.6568542,64 74,64 C72.3431458,64 71,65.3431458 71,67 L71,67 Z"/><path d="M63.0822521,49.5677584 C61.8902521,48.4270439 59.9902521,48.4607693 58.8402521,49.6441367 L53.0002521,55.6522308 L53.0002521,18.9757772 C53.0002521,17.3321562 51.6562521,16 50.0002521,16 C48.3432521,16 47.0002521,17.3321562 47.0002521,18.9757772 L47.0002521,55.6522308 L41.1602521,49.6441367 C40.0092521,48.4607693 38.1102521,48.4270439 36.9172521,49.5677584 C35.7252521,50.7074811 35.6902521,52.59214 36.8402521,53.7745154 L47.8402521,65.0894122 C47.8462521,65.0953637 47.8532521,65.1003234 47.8602521,65.1062749 C47.8742521,65.1201619 47.8872521,65.1330569 47.9012521,65.1469439 C47.9072521,65.1538874 47.9112521,65.1608308 47.9172521,65.1667824 C47.9652521,65.211419 48.0192521,65.2431607 48.0692521,65.2848216 C48.1052521,65.3155713 48.1412521,65.345329 48.1782521,65.3740949 C48.2252521,65.4098042 48.2672521,65.4534489 48.3142521,65.4851905 C48.3302521,65.4961017 48.3472521,65.5030452 48.3622521,65.5129645 C48.4392521,65.5635527 48.5202521,65.599262 48.6012521,65.6419148 C48.6142521,65.6488583 48.6272521,65.6567937 48.6412521,65.6637372 C48.7032521,65.6954788 48.7622521,65.7361478 48.8262521,65.7629298 C48.8442521,65.7708652 48.8622521,65.7748329 48.8792521,65.7817763 C48.9672521,65.8164937 49.0582521,65.8373242 49.1482521,65.8650981 C49.2272521,65.8869205 49.3032521,65.919654 49.3832521,65.9365168 C49.4022521,65.9404845 49.4212521,65.9414764 49.4392521,65.9444522 C49.5302521,65.9613149 49.6222521,65.9642907 49.7132521,65.973218 C49.8002521,65.9821453 49.8862521,65.9960323 49.9742521,65.9970242 C49.9822521,65.9970242 49.9912521,66 50.0002521,66 C50.0092521,66 50.0182521,65.9970242 50.0262521,65.9970242 C50.1142521,65.9970242 50.2002521,65.9821453 50.2872521,65.973218 C50.3782521,65.9642907 50.4702521,65.9613149 50.5612521,65.9444522 C50.5792521,65.9414764 50.5982521,65.9404845 50.6162521,65.9365168 C50.6982521,65.9186621 50.7752521,65.8869205 50.8552521,65.8641062 C50.9442521,65.8363323 51.0332521,65.8155018 51.1202521,65.7817763 C51.1382521,65.7748329 51.1562521,65.7708652 51.1732521,65.7639217 C51.2522521,65.7301962 51.3242521,65.6815918 51.4002521,65.6409229 C51.4802521,65.599262 51.5612521,65.5635527 51.6382521,65.5129645 C51.6522521,65.5030452 51.6692521,65.4970937 51.6842521,65.4871744 C51.7412521,65.4484893 51.7912521,65.3969092 51.8462521,65.3542564 C51.8772521,65.3304501 51.9062521,65.305652 51.9362521,65.2808538 C51.9832521,65.2411768 52.0362521,65.2104271 52.0822521,65.1667824 C52.0882521,65.1608308 52.0922521,65.1538874 52.0982521,65.1479358 C52.1112521,65.1340488 52.1252521,65.1221457 52.1392521,65.1082588 C52.1452521,65.1013153 52.1532521,65.0963557 52.1602521,65.0894122 L63.1602521,53.7745154 C64.3102521,52.59214 64.2752521,50.7074811 63.0822521,49.5677584" transform="translate(50.000194, 41.000000) scale(1, -1) translate(-50.000194, -41.000000)"/></g></g></svg>

<?xml version="1.0" encoding="UTF-8" standalone="no"?>
<svg
   xmlns:dc="http://purl.org/dc/elements/1.1/"
   xmlns:cc="http://creativecommons.org/ns#"
   xmlns:rdf="http://www.w3.org/1999/02/22-rdf-syntax-ns#"
   xmlns:svg="http://www.w3.org/2000/svg"
   xmlns="http://www.w3.org/2000/svg"
   x="0"
   y="0"
   version="1.1"
   viewBox="0 0 100 100"
   id="svg10">
  <metadata
     id="metadata16">
    <rdf:RDF>
      <cc:Work
         rdf:about="">
        <dc:format>image/svg+xml</dc:format>
        <dc:type
           rdf:resource="http://purl.org/dc/dcmitype/StillImage" />
        <dc:title></dc:title>
      </cc:Work>
    </rdf:RDF>
  </metadata>
  <defs
     id="defs14" />
  <g
     style="fill-opacity:1;fill-rule:evenodd;stroke:none;stroke-width:1"
     id="g6"
     fill="#00c3ff">
    <path
       style="fill-opacity:1;fill-rule:nonzero;fill:#00c3ff;stroke:none"
       id="path2"
       d="m 71,67 v 6 c 0,0.578362 -0.410475,1 -0.918367,1 H 29.918367 C 29.406774,74 29,73.582596 29,73 v -6 c 0,-1.656854 -1.343146,-3 -3,-3 -1.656854,0 -3,1.343146 -3,3 v 6 c 0,3.862161 3.057934,7 6.918367,7 H 70.081633 C 73.939801,80 77,76.856573 77,73 v -6 c 0,-1.656854 -1.343146,-3 -3,-3 -1.656854,0 -3,1.343146 -3,3 z" />
    <path
       style="fill-opacity:1;fill:#00c3ff;stroke:none;fill-rule:nonzero"
       id="path4"
       transform="matrix(1,0,0,-1,0,82)"
       d="m 63.082252,49.567758 c -1.192,-1.140714 -3.092,-1.106989 -4.242,0.07638 l -5.84,6.008094 V 18.975777 c 0,-1.643621 -1.344,-2.975777 -3,-2.975777 -1.657,0 -3,1.332156 -3,2.975777 v 36.676454 l -5.84,-6.008094 c -1.151,-1.183368 -3.05,-1.217093 -4.243,-0.07638 -1.192,1.139723 -1.227,3.024382 -0.077,4.206757 l 11,11.314897 c 0.006,0.006 0.013,0.01091 0.02,0.01686 0.014,0.01389 0.027,0.02678 0.041,0.04067 0.006,0.0069 0.01,0.01389 0.016,0.01984 0.048,0.04464 0.102,0.07638 0.152,0.11804 0.036,0.03075 0.072,0.06051 0.109,0.08927 0.047,0.03571 0.089,0.07935 0.136,0.111096 0.016,0.01091 0.033,0.01785 0.048,0.02777 0.077,0.05059 0.158,0.0863 0.239,0.128951 0.013,0.0069 0.026,0.01488 0.04,0.02182 0.062,0.03174 0.121,0.07241 0.185,0.09919 0.018,0.0079 0.036,0.0119 0.053,0.01885 0.088,0.03472 0.179,0.05555 0.269,0.08332 0.079,0.02182 0.155,0.05456 0.235,0.07142 0.019,0.004 0.038,0.005 0.056,0.0079 0.091,0.01686 0.183,0.01984 0.274,0.02877 0.087,0.0089 0.173,0.02281 0.261,0.02381 0.008,0 0.017,0.003 0.026,0.003 0.009,0 0.018,-0.003 0.026,-0.003 0.088,0 0.174,-0.01488 0.261,-0.02381 0.091,-0.0089 0.183,-0.0119 0.274,-0.02877 0.018,-0.003 0.037,-0.004 0.055,-0.0079 0.082,-0.01785 0.159,-0.0496 0.239,-0.07241 0.089,-0.02777 0.178,-0.0486 0.265,-0.08233 0.018,-0.0069 0.036,-0.01091 0.053,-0.01785 0.079,-0.03373 0.151,-0.08233 0.227,-0.122999 0.08,-0.04166 0.161,-0.07737 0.238,-0.127959 0.014,-0.0099 0.031,-0.01587 0.046,-0.02579 0.057,-0.03869 0.107,-0.09027 0.162,-0.132918 0.031,-0.02381 0.06,-0.0486 0.09,-0.0734 0.047,-0.03968 0.1,-0.07043 0.146,-0.114072 0.006,-0.006 0.01,-0.0129 0.016,-0.01885 0.013,-0.01389 0.027,-0.02579 0.041,-0.03968 0.006,-0.0069 0.014,-0.0119 0.021,-0.01885 l 11,-11.314897 c 1.15,-1.182375 1.115,-3.067034 -0.078,-4.206757" />
  </g>
</svg>
